!!!OTL: Graf Friedrich Es wollt' ein Ritter ausreiten
!!!ARE: Europa, Mitteleuropa, Deutschland (), Sachsen, Erzgebirge, Rittersgruen
!!!YOR: 2, S. 201
!!    1893 aufgezeichnet
!!!SCT: Q0048C
!!!YEM: Copyright 1995, estate of Helmut Schaffrath.
**kern
*ICvox
*Ivox
*M4/4
*k[]
*C:
{4G
=1
4c
8B
8A
8G
8G
8c
8e
=2
4d
4c
4r}
{4G
=3
4c
8B
8A
4G
8c
8e
=4
4d
4c
4r}
{4G
=5
4e
8e
8e
4e
8e
8e
=6
8g
8g
8f
8e
4.d}
{8c
=7
4B
4B
4.g
8f
=8
4e
4d
4c}
==
!!!AGN: Ballade, Hochzeit, Mord / Unfall, Tod
!! Grundton in der zweigestrichenen Oktave.
!!!ONB: ESAC (Essen Associative Code) Database: BALLADE
!!!AMT: simple quadruple
!!!AIN: vox
!!!EED: Helmut Schaffrath
!!!EEV: 1.0
*-
